icon-themes/sifr_svg/cmd/lc_dbviewfunctions.svg

<?xml version="1.0" encoding="UTF-8" standalone="no"?>
<svg
   xmlns:dc="http://purl.org/dc/elements/1.1/"
   xmlns:cc="http://creativecommons.org/ns#"
   xmlns:rdf="http://www.w3.org/1999/02/22-rdf-syntax-ns#"
   xmlns:svg="http://www.w3.org/2000/svg"
   xmlns="http://www.w3.org/2000/svg"
   xmlns:sodipodi="http://sodipodi.sourceforge.net/DTD/sodipodi-0.dtd"
   xmlns:inkscape="http://www.inkscape.org/namespaces/inkscape"
   viewBox="0 0 24 24"
   version="1.1"
   id="svg5"
   sodipodi:docname="lc_dbviewfunctions.svg"
   inkscape:version="0.92.1 r15371"
   inkscape:export-filename="/home/matthias/GIT/icons/sifr_svg/lc_dbviewfunctions.png"
   inkscape:export-xdpi="96"
   inkscape:export-ydpi="96">
  <defs
     id="defs9" />
  <sodipodi:namedview
     pagecolor="#ffffff"
     bordercolor="#666666"
     borderopacity="1"
     objecttolerance="10"
     gridtolerance="10"
     guidetolerance="10"
     inkscape:pageopacity="0"
     inkscape:pageshadow="2"
     inkscape:window-width="1920"
     inkscape:window-height="1007"
     id="namedview7"
     showgrid="true"
     inkscape:zoom="9.8333333"
     inkscape:cx="22.78542"
     inkscape:cy="15.530185"
     inkscape:window-x="0"
     inkscape:window-y="44"
     inkscape:window-maximized="1"
     inkscape:current-layer="svg5"
     inkscape:snap-bbox="true"
     inkscape:bbox-paths="true"
     inkscape:bbox-nodes="true"
     inkscape:snap-bbox-midpoints="true"
     inkscape:snap-bbox-edge-midpoints="true">
    <inkscape:grid
       type="xygrid"
       id="grid4486"
       spacingx="0.5"
       spacingy="0.5"
       empspacing="2" />
  </sodipodi:namedview>
  <metadata
     id="metadata7838">
    <rdf:RDF>
      <cc:Work
         rdf:about="">
        <dc:format>image/svg+xml</dc:format>
        <dc:type
           rdf:resource="http://purl.org/dc/dcmitype/StillImage" />
        <dc:title></dc:title>
        <cc:license
           rdf:resource="http://creativecommons.org/licenses/by-sa/4.0/" />
        <dc:rights>
          <cc:Agent>
            <dc:title>The Document Foundation</dc:title>
          </cc:Agent>
        </dc:rights>
        <dc:contributor>
          <cc:Agent>
            <dc:title>Matthias Freund</dc:title>
          </cc:Agent>
        </dc:contributor>
      </cc:Work>
      <cc:License
         rdf:about="http://creativecommons.org/licenses/by-sa/4.0/">
        <cc:permits
           rdf:resource="http://creativecommons.org/ns#Reproduction" />
        <cc:permits
           rdf:resource="http://creativecommons.org/ns#Distribution" />
        <cc:requires
           rdf:resource="http://creativecommons.org/ns#Notice" />
        <cc:requires
           rdf:resource="http://creativecommons.org/ns#Attribution" />
        <cc:permits
           rdf:resource="http://creativecommons.org/ns#DerivativeWorks" />
        <cc:requires
           rdf:resource="http://creativecommons.org/ns#ShareAlike" />
      </cc:License>
    </rdf:RDF>
  </metadata>
  <path
     style="display:inline;opacity:1;fill:#555753;fill-opacity:1;fill-rule:nonzero;stroke:none;stroke-width:0.99988556"
     d="m 15.001826,11.000006 2.843105,5.187497 -0.343675,0.656251 C 16.609721,17.05094 15.648179,17.909597 15.220533,18.906253 14.726687,20.056838 15.107823,21 16.095329,21 c 0.987374,0 2.193191,-0.943162 2.686887,-2.093747 0.09497,-0.221137 0.156396,-0.425035 0.187458,-0.625003 L 20.46933,21 H 23 l -2.843105,-5.218744 0.312435,-0.656249 c 0.899006,-0.196267 1.879847,-1.055767 2.311964,-2.062501 0.493902,-1.150603 0.112633,-2.0625 -0.874796,-2.0625 -0.987458,0 -2.193033,0.911897 -2.686888,2.0625 -0.102619,0.239044 -0.159273,0.473654 -0.187457,0.687498 l -1.530897,-2.749998 z"
     id="rect5925"
     inkscape:export-filename="/home/matthias/Arbeitsfläche/sifr/von Jay Philipz/Matti/lc_insertformula.png"
     inkscape:export-xdpi="89"
     inkscape:export-ydpi="89"
     inkscape:connector-curvature="0" />
  <path
     style="color:#000000;font-style:normal;font-variant:normal;font-weight:normal;font-stretch:normal;font-size:medium;line-height:normal;font-family:Sans;-inkscape-font-specification:Sans;text-indent:0;text-align:start;text-decoration:none;text-decoration-line:none;letter-spacing:normal;word-spacing:normal;text-transform:none;writing-mode:lr-tb;direction:ltr;baseline-shift:baseline;text-anchor:start;display:inline;overflow:visible;visibility:visible;opacity:1;fill:#555753;fill-opacity:1;stroke:none;stroke-width:1.99977112;marker:none;enable-background:accumulate"
     d="M 15.126804,3 C 12.524376,3 9.947328,5.03265 9.4093634,7.5 L 8.6282861,11.000006 H 7.8472182 c -0.8615901,0 -1.6906752,0.669001 -1.8433308,1.5 -0.1533305,0.830991 0.4193696,1.500001 1.2809596,1.500001 H 7.9721864 L 7.4410643,16.5 C 7.2564941,17.34614 6.427709,18 5.5352448,18 4.6428086,18 4.0697993,17.34614 4.2542945,16.5 L 4.5979594,15 H 3.0045746 C 2.2173487,14.999062 1.317208,15.498216 1.0987643,16.5 0.56079068,18.96735 2.2767444,21 4.8791451,21 7.4815738,21 10.058612,18.96735 10.596585,16.5 l 0.562372,-2.499993 h 0.999774 c 0.861562,0 1.690675,-0.66901 1.843331,-1.500001 0.15334,-0.830999 -0.419398,-1.5 -1.28096,-1.5 H 11.815056 L 12.564884,7.5 C 12.749379,6.6538594 13.578249,6 14.470705,6 c 0.892445,0 1.434196,0.6538594 1.24971,1.5 L 15.407989,9 h 1.593385 C 17.7886,9.0009375 18.688741,8.5017938 18.907185,7.5 19.445149,5.03265 17.729205,3 15.126804,3 Z"
     id="path5938"
     inkscape:export-filename="/home/matthias/Arbeitsfläche/sifr/von Jay Philipz/Matti/lc_insertformula.png"
     inkscape:export-xdpi="89"
     inkscape:export-ydpi="89"
     inkscape:connector-curvature="0" />
</svg>

<svg xmlns="http://www.w3.org/2000/svg" viewBox="0 0 24 24">
 <path
     style="fill:#555753"
     d="M 15.126953 3 C 12.524525 3 9.9481208 5.03265 9.4101562 7.5 L 8.6289062 11 L 7.8476562 11 C 6.9860662 11 6.1565618 11.669001 6.0039062 12.5 C 5.8505757 13.330991 6.4235662 14 7.2851562 14 L 7.9726562 14 L 7.4414062 16.5 C 7.2568361 17.34614 6.4276204 18 5.5351562 18 C 4.6427201 18 4.069411 17.34614 4.2539062 16.5 L 4.5976562 15 L 3.0039062 15 C 2.2166803 14.999062 1.3180531 15.498216 1.0996094 16.5 C 0.56163575 18.96735 2.2765055 21 4.8789062 21 C 7.4813349 21 10.05773 18.96735 10.595703 16.5 L 11.158203 14 L 12.158203 14 C 13.019765 14 13.849297 13.330991 14.001953 12.5 C 14.155293 11.669001 13.582265 11 12.720703 11 L 11.814453 11 L 12.564453 7.5 C 12.748948 6.6538594 13.578247 6 14.470703 6 C 15.363148 6 15.905189 6.6538594 15.720703 7.5 L 15.408203 9 L 17.001953 9 C 17.789179 9.0009375 18.687806 8.5017938 18.90625 7.5 C 19.444214 5.03265 17.729354 3 15.126953 3 z M 15.001953 11 L 17.845703 16.1875 L 17.501953 16.84375 C 16.610418 17.050936 15.648349 17.909594 15.220703 18.90625 C 14.726857 20.056835 15.108197 21 16.095703 21 C 17.083077 21 18.287554 20.056835 18.78125 18.90625 C 18.87622 18.685113 18.937688 18.481218 18.96875 18.28125 L 20.46875 21 L 23 21 L 20.15625 15.78125 L 20.46875 15.125 C 21.367756 14.928733 22.349133 14.069234 22.78125 13.0625 C 23.275152 11.911897 22.893679 11 21.90625 11 C 20.918792 11 19.712605 11.911897 19.21875 13.0625 C 19.116131 13.301544 19.059434 13.536156 19.03125 13.75 L 17.501953 11 L 15.001953 11 z "
     />
 </svg>
